X: 1133
M: 6/8
L: 1/8
K: D
dcd ede | f2d d2F | GFG A2A | d2d d2A |\
dcd ede | f2d d2F | GFG A2A | d2d d2 :|

